X: 125
T: Ripe the ribs, a Strathspey
C: attr. John French (1753-1803)
R: strathspey
B: "John French Collection", John French ed. p.12 #5
S: http://www.heallan.com/french.asp
Z: 2012 John Chambers <jc:trillian.mit.edu>
M: 4/4
L: 1/8
K: A
C |\
A,<A,E>C E>FE>C | A,<A {Bc}d>c BB,B,C | A,<A,E>C E>FAd | c<eB>c | AA,A, :|
f |\
e<ea>c e>A {d}c>A | B<Bc>A F>BBf | e<ea>c e>Acf | e<ag>b eaac' |
e<ea>c e>A {d}c>A | B<Bc>A F>BBf | A<cF>A E<AEC | D<FE>C A,AA |]

%%sep 2 1 500
%%sep 1 1 500

